src/assets/images/Instagram.svg

<svg width="60" height="60" viewBox="0 0 60 60" fill="none" xmlns="http://www.w3.org/2000/svg">
<rect width="60" height="60" rx="30" fill="url(#paint0_linear_316_147)"/>
<path d="M30.0048 15.2446C34.8145 15.2446 35.3791 15.266 37.2801 15.3518C39.0382 15.4304 39.9887 15.7234 40.6247 15.9735C41.4681 16.3023 42.0684 16.6882 42.6973 17.3171C43.3262 17.946 43.7192 18.5463 44.0408 19.3896C44.2838 20.0257 44.584 20.9762 44.6626 22.7342C44.7484 24.6353 44.7698 25.1998 44.7698 30.0095C44.7698 34.8192 44.7484 35.3838 44.6626 37.2848C44.584 39.0429 44.291 39.9934 44.0408 40.6294C43.7121 41.4727 43.3262 42.0731 42.6973 42.702C42.0684 43.3309 41.4681 43.7239 40.6247 44.0455C39.9887 44.2885 39.0382 44.5887 37.2801 44.6673C35.3791 44.753 34.8145 44.7745 30.0048 44.7745C25.1951 44.7745 24.6306 44.753 22.7296 44.6673C20.9715 44.5887 20.021 44.2957 19.3849 44.0455C18.5416 43.7168 17.9413 43.3309 17.3124 42.702C16.6835 42.0731 16.2904 41.4727 15.9688 40.6294C15.7258 39.9934 15.4257 39.0429 15.3471 37.2848C15.2613 35.3838 15.2399 34.8192 15.2399 30.0095C15.2399 25.1998 15.2613 24.6353 15.3471 22.7342C15.4257 20.9762 15.7187 20.0257 15.9688 19.3896C16.2976 18.5463 16.6835 17.946 17.3124 17.3171C17.9413 16.6882 18.5416 16.2951 19.3849 15.9735C20.021 15.7305 20.9715 15.4304 22.7296 15.3518C24.6306 15.2589 25.2023 15.2446 30.0048 15.2446ZM30.0048 12C25.1165 12 24.5019 12.0214 22.5795 12.1072C20.6642 12.193 19.3563 12.5003 18.2129 12.9434C17.0265 13.4007 16.026 14.0225 15.0255 15.023C14.0249 16.0236 13.4103 17.0312 12.9458 18.2104C12.5027 19.3539 12.1954 20.6617 12.1096 22.5842C12.0239 24.4995 12.0024 25.1141 12.0024 30.0024C12.0024 34.8907 12.0239 35.5053 12.1096 37.4277C12.1954 39.343 12.5027 40.6509 12.9458 41.8015C13.4032 42.9878 14.0249 43.9884 15.0255 44.9889C16.026 45.9894 17.0337 46.604 18.2129 47.0686C19.3563 47.5116 20.6642 47.8189 22.5866 47.9047C24.5091 47.9905 25.1165 48.0119 30.012 48.0119C34.9074 48.0119 35.5149 47.9905 37.4373 47.9047C39.3526 47.8189 40.6605 47.5116 41.8111 47.0686C42.9974 46.6112 43.998 45.9894 44.9985 44.9889C45.999 43.9884 46.6136 42.9807 47.0782 41.8015C47.5213 40.658 47.8286 39.3502 47.9143 37.4277C48.0001 35.5053 48.0215 34.8978 48.0215 30.0024C48.0215 25.1069 48.0001 24.4995 47.9143 22.577C47.8286 20.6617 47.5213 19.3539 47.0782 18.2033C46.6208 17.0169 45.999 16.0164 44.9985 15.0159C43.998 14.0154 42.9903 13.4007 41.8111 12.9362C40.6676 12.4931 39.3598 12.1858 37.4373 12.1001C35.5078 12.0214 34.8931 12 30.0048 12Z" fill="white"/>
<path d="M30.0046 20.7617C24.9019 20.7617 20.7568 24.8996 20.7568 30.0095C20.7568 35.1193 24.8947 39.2572 30.0046 39.2572C35.1144 39.2572 39.2523 35.1193 39.2523 30.0095C39.2523 24.8996 35.1144 20.7617 30.0046 20.7617ZM30.0046 36.0055C26.6885 36.0055 24.0014 33.3184 24.0014 30.0023C24.0014 26.6863 26.6885 23.9991 30.0046 23.9991C33.3206 23.9991 36.0078 26.6863 36.0078 30.0023C36.0078 33.3184 33.3206 36.0055 30.0046 36.0055Z" fill="white"/>
<path d="M39.6168 22.548C40.8088 22.548 41.7751 21.5817 41.7751 20.3897C41.7751 19.1977 40.8088 18.2314 39.6168 18.2314C38.4248 18.2314 37.4585 19.1977 37.4585 20.3897C37.4585 21.5817 38.4248 22.548 39.6168 22.548Z" fill="white"/>
<defs>
<linearGradient id="paint0_linear_316_147" x1="30" y1="0" x2="30" y2="60" gradientUnits="userSpaceOnUse">
<stop stop-color="#FF00C8"/>
<stop offset="1" stop-color="#FF6A00"/>
</linearGradient>
</defs>
</svg>

<svg xmlns="http://www.w3.org/2000/svg" width="60" height="60" fill="none"><rect width="60" height="60" fill="url(#a)" rx="30"/><path fill="#fff" d="M30.005 15.245c4.81 0 5.374.021 7.275.107 1.758.078 2.709.371 3.345.621.843.33 1.443.715 2.072 1.344a5.5 5.5 0 0 1 1.344 2.073c.243.636.543 1.586.622 3.344.085 1.901.107 2.466.107 7.275s-.022 5.375-.107 7.276c-.079 1.758-.372 2.708-.622 3.344-.329.844-.715 1.444-1.344 2.073a5.5 5.5 0 0 1-2.072 1.343c-.636.243-1.587.544-3.345.622-1.9.086-2.465.108-7.275.108s-5.374-.022-7.275-.108c-1.759-.078-2.709-.371-3.345-.622-.843-.328-1.444-.714-2.073-1.343a5.5 5.5 0 0 1-1.343-2.073c-.243-.636-.543-1.586-.622-3.344-.086-1.901-.107-2.466-.107-7.275s.021-5.375.107-7.276c.079-1.758.372-2.708.622-3.344.329-.844.714-1.444 1.343-2.073a5.5 5.5 0 0 1 2.073-1.344c.636-.243 1.586-.543 3.345-.621 1.9-.093 2.472-.107 7.275-.107m0-3.245c-4.889 0-5.503.021-7.425.107-1.916.086-3.224.393-4.367.836a8.8 8.8 0 0 0-3.188 2.08c-1 1-1.615 2.008-2.08 3.187-.442 1.144-.75 2.452-.835 4.374-.086 1.916-.108 2.53-.108 7.418 0 4.889.022 5.503.108 7.426.085 1.915.393 3.223.836 4.374a8.8 8.8 0 0 0 2.08 3.187c1 1 2.008 1.615 3.187 2.08 1.143.443 2.451.75 4.374.836s2.53.107 7.425.107 5.503-.022 7.425-.107c1.916-.086 3.224-.393 4.374-.836A8.8 8.8 0 0 0 45 44.989c1-1 1.615-2.008 2.08-3.187.442-1.144.75-2.452.835-4.374.086-1.923.108-2.53.108-7.426 0-4.895-.022-5.502-.108-7.425-.085-1.915-.393-3.223-.836-4.374a8.8 8.8 0 0 0-2.08-3.187c-1-1-2.008-1.615-3.187-2.08-1.143-.443-2.451-.75-4.374-.836-1.93-.079-2.544-.1-7.432-.1"/><path fill="#fff" d="M30.005 20.762c-5.103 0-9.248 4.138-9.248 9.247a9.245 9.245 0 0 0 9.248 9.248 9.245 9.245 0 0 0 9.247-9.247 9.245 9.245 0 0 0-9.247-9.248m0 15.243A6 6 0 0 1 24 30.002 6 6 0 0 1 30.005 24a6.003 6.003 0 0 1 6.003 6.003 6 6 0 0 1-6.003 6.003M39.617 22.548a2.158 2.158 0 1 0 0-4.317 2.158 2.158 0 0 0 0 4.317"/><defs><linearGradient id="a" x1="30" x2="30" y1="0" y2="60" gradientUnits="userSpaceOnUse"><stop stop-color="#FF00C8"/><stop offset="1" stop-color="#FF6A00"/></linearGradient></defs></svg>
